; HEADER_BLOCK_START
; generated by Creality_Print V5.1.7.10514 on 2025-08-13 at 17:17:21
; total layer number: 256
; filament_density: 1.24
; filament_diameter: 1.75
; max_z_height: 50.00
; HEADER_BLOCK_END

; MINX = 78.54
; MINY = 37.41
; MINZ = -0.00
; MAXX = 158.54
; MAXY = 189.91
; MAXZ = 50.00

; THUMBNAIL_BLOCK_START

;
; THUMBNAIL_BLOCK_END

; THUMBNAIL_BLOCK_START

;
; THUMBNAIL_BLOCK_END

; external perimeters extrusion width = 0.42mm
; perimeters extrusion width = 0.45mm
; infill extrusion width = 0.45mm
; solid infill extrusion width = 0.42mm
; top infill extrusion width = 0.42mm
; support material extrusion width = 0.42mm
; first layer extrusion width = 0.55mm

; EXECUTABLE_BLOCK_START
EXCLUDE_OBJECT_DEFINE NAME=rl_pendulum_v1.stl_id_0_copy_0 CENTER=118.544,113.656 POLYGON=[[78.544,179.906],[81.544,45.4056],[81.555,44.9869],[81.5878,44.5694],[81.6425,44.1541],[81.7188,43.7423],[81.8166,43.3351],[81.9356,42.9335],[82.0754,42.5387],[82.2356,42.1517],[82.416,41.7737],[82.6158,41.4056],[82.8346,41.0485],[83.0719,40.7033],[83.5988,40.0526],[84.191,39.4605],[84.8417,38.9335],[85.544,38.4774],[86.2901,38.0972],[86.2929,38.096],[86.544,37.9894],[87.0719,37.7972],[87.8807,37.5804],[88.7078,37.4494],[89.544,37.4056],[103.544,37.4056],[104.38,37.4494],[105.207,37.5804],[106.016,37.7972],[106.544,37.9894],[106.795,38.096],[106.798,38.0972],[107.544,38.4774],[108.246,38.9335],[108.897,39.4605],[109.489,40.0526],[110.016,40.7033],[110.253,41.0485],[110.472,41.4056],[110.672,41.7737],[110.852,42.1517],[111.013,42.5387],[111.152,42.9335],[158.544,179.906],[158.544,189.906],[78.544,189.906],[78.544,179.906]]
M73 P0 R75
M106 S0
M106 P2 S0
;TYPE:Custom
M140 S0
M104 S0
START_PRINT EXTRUDER_TEMP=220 BED_TEMP=65
G90
G21
M83 ; use relative distances for extrusion
; filament start gcode
M106 S0
;LAYER_CHANGE
;Z:0.2
;HEIGHT:0.2
;BEFORE_LAYER_CHANGE
;0.2
G92 E0

G1 E-.8 F2400
;AFTER_LAYER_CHANGE
;0.2
;_SET_FAN_SPEED_CHANGING_LAYER
SET_VELOCITY_LIMIT ACCEL=2000 ACCEL_TO_DECEL=500
SET_VELOCITY_LIMIT SQUARE_CORNER_VELOCITY=9
; printing object rl_pendulum_v1.stl id:0 copy 0
EXCLUDE_OBJECT_START NAME=rl_pendulum_v1.stl_id_0_copy_0
G1 X97.018 Y50.557 F30000
G1 Z.4
G1 Z.2
G1 E.8 F2400
;TYPE:Support
;WIDTH:0.55
G1 F6000
G3 X96.531 Y50.532 I-.468 J4.346 E1.11461
G1 X96.942 Y50.553 E.01698
G1 X97.795 Y58.618 F30000
G1 F6000
G3 X98.187 Y58.461 I-1.25 J-3.709 E.99874
G1 X97.795 Y58.618 E.01747
G1 X97.615 Y58.083 F30000
G1 F6000
G3 X97.95 Y57.949 I-1.071 J-3.175 E.8549
G1 X97.615 Y58.083 E.01491
G1 X97.434 Y57.548 F30000
G1 F6000
G3 X97.712 Y57.438 I-.891 J-2.64 E.71107
G1 X97.434 Y57.548 E.01236
G1 X97.254 Y57.013 F30000
G1 F6000
G3 X97.475 Y56.926 I-.711 J-2.106 E.56724
G1 X97.254 Y57.013 E.0098
G1 X97.074 Y56.479 F30000
G1 F6000
G3 X97.237 Y56.414 I-.532 J-1.571 E.42341
G1 X97.074 Y56.479 E.00725
G1 X96.894 Y55.944 F30000
G1 F6000
G3 X96.999 Y55.902 I-.352 J-1.037 E.27958
G1 X96.894 Y55.944 E.00469
G1 X96.714 Y55.409 F30000
G1 F6000
G3 X96.762 Y55.39 I-.172 J-.502 E.13575
G1 X96.714 Y55.409 E.00214
G1 E-.76 F2400
;WIPE_START
G1 F6000
G1 X96.762 Y55.39 E-.00138
G1 X97.038 Y55.102 E-.01064
G1 X97.038 Y54.709 E-.01049
G1 X96.767 Y54.423 E-.01049
G1 X96.505 Y54.409 E-.007
;WIPE_END
G1 X99.46 Y61.446 Z.6 F30000
G1 X153.219 Y189.481 Z.6
G1 Z.2
G1 E.8 F2400
;TYPE:Outer wall
;WIDTH:0.549999
G1 F6000
G1 X83.869 Y189.481 E2.86558
G1 X83.869 Y179.98 E.39257
G1 X86.869 Y72.477 E4.44382
G1 X86.869 Y38.324 E1.41122
G1 X87.2 Y38.203 E.01456
G3 X89.555 Y37.831 I2.497 J8.165 E.09885
G1 X90.838 Y37.831 E.053
;WIDTH:0.598388
G1 X91.017 Y37.855 E.00818
;WIDTH:0.646777
G1 X91.196 Y37.879 E.00889
;WIDTH:0.695166
G1 X91.375 Y37.903 E.0096
;WIDTH:0.743555
G1 F5994.562
G1 X91.554 Y37.927 E.01031
G1 X92.341 Y37.908 E.04497
;WIDTH:0.704715
G1 F6000
G1 X92.498 Y37.889 E.00852
;WIDTH:0.666036
G1 X92.655 Y37.869 E.00803
;WIDTH:0.627357
G1 X92.812 Y37.85 E.00753
;WIDTH:0.588678
G1 X92.969 Y37.831 E.00703
;WIDTH:0.549999
G1 X103.548 Y37.831 E.43713
G1 X104.438 Y37.889 E.03685
G1 X105.19 Y38.016 E.03151
G1 X106.219 Y38.324 E.04439
G1 X106.219 Y72.753 E1.42264
G1 X106.238 Y73.563 E.03349
G1 X153.219 Y181.019 E4.84594
G1 X153.219 Y189.441 E.34799
G1 E-.76 F2400
;WIPE_START
G1 F6000
G1 X151.719 Y189.441 E-.04
;WIPE_END
G1 X144.167 Y188.338 Z.6 F30000
G1 X89.351 Y180.331 Z.6
G1 Z.2
G1 E.8 F2400
G1 F6000
G1 X89.188 Y180.263 E.00729
G1 X89.119 Y180.099 E.00738
G1 X89.119 Y130.713 E2.04065
G1 X89.182 Y130.554 E.00707
G1 X89.351 Y130.481 E.00761
G1 X103.737 Y130.481 E.59443
G1 X103.895 Y130.543 E.00704
G1 X103.969 Y130.68 E.00643
G1 X103.969 Y180.099 E2.04199
G1 X103.902 Y180.262 E.0073
G1 X103.737 Y180.331 E.00738
G1 X89.391 Y180.331 E.59278
G1 E-.76 F2400
;WIPE_START
G1 F6000
G1 X89.188 Y180.263 E-.00571
G1 X89.119 Y180.099 E-.00477
G1 X89.119 Y178.991 E-.02953
;WIPE_END
G1 X89.415 Y171.365 Z.6 F30000
G1 X93.759 Y59.561 Z.6
G1 Z.2
G1 E.8 F2400
G1 F6000
G1 X93.273 Y59.229 E.02429
G3 X92.047 Y51.872 I3.267 J-4.326 E.33988
G1 X92.401 Y51.403 E.02427
G3 X93.792 Y59.575 I4.14 J3.5 E1.01749
G1 E-.76 F2400
;WIPE_START
G1 F6000
G1 X93.273 Y59.229 E-.01662
G1 X92.822 Y58.853 E-.01566
G1 X92.623 Y58.643 E-.00772
;WIPE_END
G1 X91.824 Y51.052 Z.6 F30000
G1 X90.817 Y41.489 Z.6
G1 Z.2
G1 E.8 F2400
G1 F6000
G1 X90.558 Y41.078 E.02007
G1 X90.426 Y40.536 E.02303
G1 X90.475 Y39.981 E.02303
G1 X90.697 Y39.47 E.02303
G1 X91.072 Y39.057 E.02303
;WIDTH:0.591713
G1 X91.305 Y38.903 E.01252
;WIDTH:0.633426
G1 X91.539 Y38.749 E.01347
;WIDTH:0.670136
G1 X91.564 Y38.721 E.0019
;WIDTH:0.706846
G1 X91.589 Y38.694 E.00201
;WIDTH:0.743555
G1 F5994.562
G1 X91.614 Y38.666 E.00212
G1 X92.144 Y38.605 E.03046
;WIDTH:0.716508
G1 F6000
G1 X92.39 Y38.617 E.01351
G1 X92.518 Y38.678 E.00776
;WIDTH:0.674881
G1 X92.646 Y38.738 E.00728
;WIDTH:0.633254
G1 X92.773 Y38.798 E.0068
;WIDTH:0.591627
G1 X92.901 Y38.858 E.00632
;WIDTH:0.549999
G1 X93.356 Y39.181 E.02303
G1 X93.683 Y39.632 E.02303
G1 X93.85 Y40.164 E.02303
G1 X93.837 Y40.721 E.02303
G1 X93.672 Y41.206 E.02115
G1 X93.356 Y41.63 E.02188
G1 X92.926 Y41.936 E.0218
G1 X92.368 Y42.114 E.02421
G1 X91.81 Y42.096 E.02303
G1 X91.288 Y41.901 E.02303
G1 X90.856 Y41.549 E.02303
G1 X90.839 Y41.522 E.00131
G1 E-.76 F2400
;WIPE_START
G1 F6000
G1 X90.558 Y41.078 E-.01402
G1 X90.426 Y40.536 E-.01486
G1 X90.462 Y40.121 E-.01112
;WIPE_END
G1 X98.016 Y39.029 Z.6 F30000
G1 X104.715 Y38.061 Z.6
G1 Z.2
G1 E.8 F2400
;TYPE:Bottom surface
;WIDTH:0.550922
G1 F8267.685
G1 X105.864 Y39.21 E.06726
G1 X105.864 Y39.929 E.02974
G1 X104.154 Y38.219 E.10012
G2 X103.402 Y38.186 I-.691 J7.153 E.03115
G1 X105.864 Y40.647 E.14411
G1 X105.864 Y41.366 E.02974
G1 X102.684 Y38.186 E.18617
G1 X101.966 Y38.186 E.02974
G1 X105.864 Y42.084 E.22822
G1 X105.864 Y42.802 E.02974
G1 X101.247 Y38.186 E.27028
G1 X100.529 Y38.186 E.02974
G1 X105.864 Y43.521 E.31234
G1 X105.864 Y44.239 E.02974
G1 X99.81 Y38.186 E.3544
G1 X99.092 Y38.186 E.02974
G1 X105.864 Y44.958 E.39646
G1 X105.864 Y45.676 E.02974
G1 X98.373 Y38.186 E.43852
G1 X97.655 Y38.186 E.02974
G1 X105.864 Y46.395 E.48057
G1 X105.864 Y47.113 E.02974
G1 X96.937 Y38.186 E.52263
G1 X96.218 Y38.186 E.02974
G1 X105.864 Y47.831 E.56469
G1 X105.864 Y48.55 E.02974
G1 X95.5 Y38.186 E.60675
G1 X94.781 Y38.186 E.02974
G1 X105.864 Y49.268 E.64881
G1 X105.864 Y49.987 E.02974
G1 X94.063 Y38.186 E.69086
G1 X93.345 Y38.186 E.02974
G1 X105.864 Y50.705 E.73292
G1 X105.864 Y51.424 E.02974
G1 X92.539 Y38.098 E.78009
G1 E-.76 F2400
;WIPE_START
G1 F8267.685
G1 X93.599 Y39.159 E-.04
;WIPE_END
G1 X93.976 Y40.254 Z.6 F30000
G1 Z.2
G1 E.8 F2400
G1 F8267.685
G1 X105.864 Y52.142 E.69593
G1 X105.864 Y52.86 E.02974
G1 X94.089 Y41.086 E.68932
G3 X93.851 Y41.565 I-1.148 J-.272 E.02237
G1 X105.864 Y53.579 E.7033
G1 X105.864 Y54.297 E.02974
G1 X93.523 Y41.956 E.72246
G1 X93.095 Y42.246 E.02141
G1 X105.864 Y55.016 E.74754
G1 X105.864 Y55.734 E.02974
G1 X92.364 Y42.234 E.79031
G1 E-.76 F2400
;WIPE_START
G1 F8267.685
G1 X93.425 Y43.295 E-.04
;WIPE_END
G1 X91.533 Y38.53 Z.6 F30000
G1 Z.2
G1 E.8 F2400
G1 F8267.685
G1 X91.264 Y38.261 E.01574
G2 X90.471 Y38.186 I-.614 J2.26 E.03316
G1 X90.974 Y38.689 E.02945
G2 X90.603 Y39.036 I.919 J1.352 E.02113
G1 X89.752 Y38.186 E.04979
G2 X89.062 Y38.213 I-.05 J7.341 E.02862
G1 X90.311 Y39.463 E.07316
G1 X90.14 Y39.844 E.01729
G1 X90.123 Y39.993 E.0062
G1 X88.415 Y38.285 E.09994
G2 X87.82 Y38.408 I.21 J2.528 E.02524
G1 X90.105 Y40.694 E.13381
G1 X90.185 Y41.092 E.01679
G1 X90.25 Y41.254 E.00723
G1 X90.507 Y41.682 E.02068
G1 X90.62 Y41.814 E.00719
G1 X91 Y42.138 E.02068
G1 X91.149 Y42.227 E.00719
G1 X91.612 Y42.412 E.02063
G2 X91.865 Y42.453 I.232 J-.626 E.01065
G1 X99.186 Y49.774 E.42861
G3 X101.683 Y52.272 I-2.668 J5.166 E.14855
G1 X105.864 Y56.452 E.24475
G1 X105.864 Y57.171 E.02974
G1 X102.132 Y53.438 E.2185
G3 X102.284 Y54.31 I-3.929 J1.138 E.03669
G1 X105.864 Y57.889 E.20956
G1 X105.864 Y58.608 E.02974
G1 X102.315 Y55.058 E.20779
G3 X102.261 Y55.723 I-3.167 J.079 E.02766
G1 X105.864 Y59.326 E.21094
G1 X105.864 Y60.045 E.02974
G1 X102.141 Y56.321 E.21796
G3 X101.971 Y56.87 I-2.589 J-.498 E.02383
G1 X105.864 Y60.763 E.22788
G1 X105.864 Y61.481 E.02974
G1 X101.759 Y57.377 E.24029
G3 X101.51 Y57.846 I-2.282 J-.911 E.02204
G1 X105.864 Y62.2 E.25487
G1 X105.864 Y62.918 E.02974
G1 X101.228 Y58.282 E.27142
G3 X100.914 Y58.687 I-2.1 J-1.305 E.02123
G1 X105.864 Y63.637 E.2898
G1 X105.864 Y64.355 E.02974
G1 X100.564 Y59.055 E.31026
G3 X100.179 Y59.388 I-1.723 J-1.606 E.02113
G1 X105.864 Y65.074 E.33282
G1 X105.864 Y65.792 E.02974
G1 X99.766 Y59.694 E.357
G3 X99.319 Y59.966 I-1.502 J-1.964 E.02168
G1 X105.864 Y66.51 E.38314
G1 X105.864 Y67.229 E.02974
G1 X98.84 Y60.204 E.41123
G1 X98.32 Y60.403 E.02303
G1 X105.864 Y67.947 E.44164
G1 X105.864 Y68.666 E.02974
G1 X97.755 Y60.557 E.47472
G1 X97.135 Y60.655 E.026
G1 X105.864 Y69.384 E.51104
G1 X105.864 Y70.103 E.02974
G1 X96.442 Y60.681 E.55158
G3 X95.65 Y60.607 I-.048 J-3.796 E.03297
G1 X105.864 Y70.821 E.59793
G1 X105.864 Y71.539 E.02974
G1 X94.307 Y59.982 E.67658
G1 E-.76 F2400
;WIPE_START
G1 F8267.685
G1 X95.368 Y61.043 E-.04
;WIPE_END
G1 X97.302 Y53.66 Z.6 F30000
G1 X98.35 Y49.657 Z.6
G1 Z.2
G1 E.8 F2400
G1 F8267.685
G1 X87.26 Y38.567 E.64921
G1 X87.224 Y38.578 E.00157
G1 X87.224 Y39.249 E.0278
G1 X97.134 Y49.159 E.58017
G1 X96.389 Y49.133 E.03086
G1 X87.224 Y39.968 E.53656
G1 X87.224 Y40.686 E.02974
G1 X95.729 Y49.191 E.49792
G2 X95.128 Y49.309 I.22 J2.726 E.02541
G1 X87.224 Y41.404 E.46273
G1 X87.224 Y42.123 E.02974
G1 X94.577 Y49.476 E.43046
G2 X94.068 Y49.685 I.722 J2.477 E.02282
G1 X87.224 Y42.841 E.40067
G1 X87.224 Y43.56 E.02974
G1 X93.598 Y49.934 E.37316
G1 X93.167 Y50.221 E.02145
G1 X87.224 Y44.278 E.34792
G1 X87.224 Y44.997 E.02974
G1 X92.768 Y50.54 E.32455
G2 X92.399 Y50.89 I1.422 J1.871 E.02108
G1 X87.224 Y45.715 E.30295
G1 X87.224 Y46.433 E.02974
G1 X92.06 Y51.269 E.2831
G2 X91.751 Y51.679 I1.731 J1.623 E.02128
G1 X87.224 Y47.152 E.26505
G1 X87.224 Y47.87 E.02974
G1 X91.48 Y52.126 E.24915
G1 X91.248 Y52.613 E.02232
G1 X87.224 Y48.589 E.2356
G1 X87.224 Y49.307 E.02974
G1 X91.051 Y53.134 E.22405
G2 X90.9 Y53.701 I2.534 J.98 E.02435
G1 X87.224 Y50.026 E.21519
G1 X87.224 Y50.744 E.02974
G1 X90.801 Y54.321 E.20941
G2 X90.772 Y55.011 I3.299 J.483 E.02863
G1 X87.224 Y51.462 E.20773
G1 X87.224 Y52.181 E.02974
G1 X90.835 Y55.792 E.2114
G1 X90.841 Y55.846 E.00225
G2 X91.078 Y56.753 I4.261 J-.63 E.03891
G1 X87.224 Y52.899 E.22564
G1 X87.224 Y53.618 E.02974
G1 X105.864 Y72.258 E1.09124
G1 X105.864 Y72.976 E.02974
G1 X87.224 Y54.336 E1.09124
G1 X87.224 Y55.054 E.02974
G1 X105.946 Y73.777 E1.09604
G1 X106.504 Y75.053 E.05767
G1 X87.224 Y55.773 E1.12871
G1 X87.224 Y56.491 E.02974
G1 X107.062 Y76.33 E1.16138
G1 X107.62 Y77.606 E.05767
G1 X87.224 Y57.21 E1.19406
G1 X87.224 Y57.928 E.02974
G1 X108.178 Y78.883 E1.22673
G1 X108.736 Y80.159 E.05767
G1 X87.224 Y58.647 E1.2594
G1 X87.224 Y59.365 E.02974
G1 X109.295 Y81.436 E1.29207
G1 X109.853 Y82.712 E.05767
G1 X87.224 Y60.083 E1.32474
G1 X87.224 Y60.802 E.02974
G1 X110.411 Y83.989 E1.35741
G1 X110.969 Y85.265 E.05767
G1 X87.224 Y61.52 E1.39008
G1 X87.224 Y62.239 E.02974
G1 X111.527 Y86.542 E1.42276
G1 X112.085 Y87.818 E.05767
G1 X87.224 Y62.957 E1.45543
G1 X87.224 Y63.675 E.02974
G1 X112.643 Y89.095 E1.4881
G1 X113.201 Y90.371 E.05767
G1 X87.224 Y64.394 E1.52077
G1 X87.224 Y65.112 E.02974
G1 X113.759 Y91.648 E1.55344
G1 X114.317 Y92.924 E.05767
G1 X87.224 Y65.831 E1.58611
G1 X87.224 Y66.549 E.02974
G1 X114.875 Y94.201 E1.61878
G1 X115.433 Y95.477 E.05767
G1 X87.224 Y67.268 E1.65146
G1 X87.224 Y67.986 E.02974
G1 X115.991 Y96.754 E1.68413
G1 X116.55 Y98.03 E.05767
G1 X87.224 Y68.704 E1.7168
G1 X87.224 Y69.423 E.02974
G1 X117.108 Y99.307 E1.74947
G1 X117.666 Y100.583 E.05767
G1 X87.224 Y70.141 E1.78214
G1 X87.224 Y70.86 E.02974
G1 X118.224 Y101.86 E1.81481
G1 X118.782 Y103.136 E.05767
G1 X87.224 Y71.578 E1.84748
G1 X87.224 Y72.297 E.02974
G1 X119.34 Y104.413 E1.88016
G1 X119.898 Y105.689 E.05767
G1 X87.21 Y73.001 E1.91366
G1 X87.19 Y73.7 E.02894
G1 X120.456 Y106.966 E1.94747
G1 X121.014 Y108.242 E.05767
G1 X87.171 Y74.399 E1.98129
G1 X87.151 Y75.097 E.02894
G1 X121.572 Y109.519 E2.0151
G1 X122.13 Y110.795 E.05767
G1 X87.132 Y75.796 E2.04891
G1 X87.112 Y76.495 E.02894
G1 X122.688 Y112.072 E2.08272
G1 X123.246 Y113.348 E.05767
G1 X87.093 Y77.194 E2.11654
G1 X87.073 Y77.893 E.02894
G1 X123.805 Y114.625 E2.15035
G1 X124.363 Y115.901 E.05767
G1 X87.054 Y78.592 E2.18416
G1 X87.034 Y79.291 E.02894
G1 X124.921 Y117.178 E2.21798
G1 X125.479 Y118.454 E.05767
G1 X87.015 Y79.99 E2.25179
G1 X86.995 Y80.689 E.02894
G1 X126.037 Y119.731 E2.2856
G1 X126.595 Y121.007 E.05767
G1 X86.976 Y81.388 E2.31942
G1 X86.956 Y82.087 E.02894
G1 X127.153 Y122.284 E2.35323
G1 X127.711 Y123.56 E.05767
G1 X86.936 Y82.786 E2.38704
G1 X86.917 Y83.485 E.02894
G1 X128.269 Y124.837 E2.42086
G1 X128.827 Y126.113 E.05767
G1 X86.897 Y84.183 E2.45467
G1 X86.878 Y84.882 E.02894
G1 X129.385 Y127.39 E2.48848
G1 X129.943 Y128.666 E.05767
G1 X86.858 Y85.581 E2.52229
G1 X86.839 Y86.28 E.02894
G1 X130.501 Y129.943 E2.55611
G1 X131.06 Y131.219 E.05767
G1 X86.819 Y86.979 E2.58992
G1 X86.8 Y87.678 E.02894
G1 X131.618 Y132.496 E2.62373
G1 X132.176 Y133.772 E.05767
G1 X86.78 Y88.377 E2.65755
G1 X86.761 Y89.076 E.02894
G1 X132.734 Y135.049 E2.69136
G1 X133.292 Y136.325 E.05767
G1 X86.741 Y89.775 E2.72517
M73 P1 R75
G1 X86.722 Y90.474 E.02894
G1 X133.85 Y137.602 E2.75899
G1 X134.408 Y138.878 E.05767
G1 X86.702 Y91.173 E2.7928
G1 X86.683 Y91.872 E.02894
G1 X134.966 Y140.155 E2.82661
G1 X135.524 Y141.431 E.05767
G1 X86.663 Y92.57 E2.86042
G1 X86.644 Y93.269 E.02894
G1 X136.082 Y142.708 E2.89424
G1 X136.64 Y143.984 E.05767
G1 X86.624 Y93.968 E2.92805
G1 X86.605 Y94.667 E.02894
G1 X137.198 Y145.261 E2.96186
G1 X137.756 Y146.537 E.05767
G1 X86.585 Y95.366 E2.99568
G1 X86.566 Y96.065 E.02894
G1 X138.315 Y147.814 E3.02949
G1 X138.873 Y149.09 E.05767
G1 X86.546 Y96.764 E3.0633
G1 X86.527 Y97.463 E.02894
G1 X139.431 Y150.367 E3.09712
M73 P1 R74
G1 X139.989 Y151.643 E.05767
G1 X86.507 Y98.162 E3.13093
G1 X86.488 Y98.861 E.02894
G1 X140.547 Y152.92 E3.16474
G1 X141.105 Y154.196 E.05767
G1 X86.468 Y99.56 E3.19856
G1 X86.449 Y100.259 E.02894
G1 X141.663 Y155.473 E3.23237
G1 X142.221 Y156.749 E.05767
G1 X86.429 Y100.957 E3.26618
G1 X86.41 Y101.656 E.02894
G1 X142.779 Y158.026 E3.29999
G1 X143.337 Y159.302 E.05767
G1 X86.39 Y102.355 E3.33381
G1 X86.371 Y103.054 E.02894
G1 X143.895 Y160.579 E3.36762
G1 X144.453 Y161.855 E.05767
G1 X86.351 Y103.753 E3.40143
G1 X86.332 Y104.452 E.02894
G1 X145.011 Y163.132 E3.43525
G1 X145.57 Y164.408 E.05767
G1 X86.312 Y105.151 E3.46906
G1 X86.293 Y105.85 E.02894
G1 X146.128 Y165.685 E3.50287
G1 X146.686 Y166.961 E.05767
G1 X86.273 Y106.549 E3.53669
G1 X86.254 Y107.248 E.02894
G1 X147.244 Y168.238 E3.5705
G1 X147.802 Y169.514 E.05767
G1 X86.234 Y107.947 E3.60431
G1 X86.215 Y108.646 E.02894
G1 X148.36 Y170.791 E3.63813
G1 X148.918 Y172.067 E.05767
G1 X86.195 Y109.345 E3.67194
G1 X86.176 Y110.043 E.02894
G1 X149.476 Y173.344 E3.70575
G1 X150.034 Y174.62 E.05767
G1 X86.156 Y110.742 E3.73956
